X:1
T:Largo from New World Symphony
T:Largo from New World Symphony
%%score 1 2
L:1/8
M:4/4
K:D
V:1 treble nm="Flute" snm="Fl."
V:2 bass nm="Tuba" snm="Tba."
V:1
 f3 a a4 | f3 e d4 | e3 f a3 f | e8 | f3 a a4 | f3 e d4 | e2 f2 e3 d | d8 | b3 d' d'4 | c'2 a2 b4 | %10
 b2 d'2 c'2 a2 | b8 | b3 d' d'4 | c'2 a2 b4 | b2 d'2 c'2 a2 | b8 | f3 a a4 | f3 e d4 | e3 f a3 f | %19
 e8 | f3 a a4 | d3 e f4 | e3 d e2 B2 | d8 |] %24
V:2
 D,,8 | D,,8 | A,,,4 B,,,4 | C,,8 | D,,8 | F,,8 | G,,4 A,,4 | D,8 | G,3 B, B,4 | A,2 F,2 G,4 | %10
 G,2 B,2 A,2 F,2 | G,8 | G,3 B, B,4 | A,2 F,2 G,4 | G,2 B,2 A,2 F,2 | G,8 | D,,8 | D,,8 | %18
 A,,4 B,,4 | C,8 | D,3 D, D,4 | F,3 G, A,4 | A,4 A,,,4 | [D,,,D,,]8 |] %24

